svgs/sharp-regular/align-center.svg

<svg xmlns="http://www.w3.org/2000/svg" viewBox="0 0 448 512"><!--! Font Awesome Pro 6.6.0 by @fontawesome - https://fontawesome.com License - https://fontawesome.com/license (Commercial License) Copyright 2024 Fonticons, Inc. --><path d="M120 40L96 40l0 48 24 0 208 0 24 0 0-48-24 0L120 40zM24 168L0 168l0 48 24 0 400 0 24 0 0-48-24 0L24 168zM96 296l0 48 24 0 208 0 24 0 0-48-24 0-208 0-24 0zM24 424L0 424l0 48 24 0 400 0 24 0 0-48-24 0L24 424z"/></svg>

<svg xmlns="http://www.w3.org/2000/svg" viewBox="0 0 448 512"><!--! Font Awesome Pro 6.5.2 by @fontawesome - https://fontawesome.com License - https://fontawesome.com/license (Commercial License) Copyright 2024 Fonticons, Inc. --><path d="M120 40H96V88h24H328h24V40H328 120zM24 168H0v48H24 424h24V168H424 24zM96 296v48h24H328h24V296H328 120 96zM24 424H0v48H24 424h24V424H424 24z"/></svg>
